fonts/svg/rocket-16.svg

<?xml version="1.0" encoding="UTF-8" standalone="no"?>
<svg
   xmlns:dc="http://purl.org/dc/elements/1.1/"
   xmlns:cc="http://creativecommons.org/ns#"
   xmlns:rdf="http://www.w3.org/1999/02/22-rdf-syntax-ns#"
   xmlns:svg="http://www.w3.org/2000/svg"
   xmlns="http://www.w3.org/2000/svg"
   xmlns:sodipodi="http://sodipodi.sourceforge.net/DTD/sodipodi-0.dtd"
   xmlns:inkscape="http://www.inkscape.org/namespaces/inkscape"
   width="16"
   height="16"
   viewBox="0 0 16 16"
   version="1.1"
   id="svg25989"
   sodipodi:docname="rocket-16.svg"
   inkscape:version="1.0.1 (c497b03c, 2020-09-10)">
  <metadata
     id="metadata25995">
    <rdf:RDF>
      <cc:Work
         rdf:about="">
        <dc:format>image/svg+xml</dc:format>
        <dc:type
           rdf:resource="http://purl.org/dc/dcmitype/StillImage" />
      </cc:Work>
    </rdf:RDF>
  </metadata>
  <defs
     id="defs25993" />
  <sodipodi:namedview
     pagecolor="#ffffff"
     bordercolor="#666666"
     borderopacity="1"
     objecttolerance="10"
     gridtolerance="10"
     guidetolerance="10"
     inkscape:pageopacity="0"
     inkscape:pageshadow="2"
     inkscape:window-width="689"
     inkscape:window-height="480"
     id="namedview25991"
     showgrid="false"
     inkscape:zoom="38.8125"
     inkscape:cx="9.6747182"
     inkscape:cy="10.4219"
     inkscape:window-x="0"
     inkscape:window-y="23"
     inkscape:window-maximized="0"
     inkscape:current-layer="svg25989" />
  <path
     fill-rule="evenodd"
     d="M 14.064,0 C 11.743393,9.7776593e-5 9.517868,0.92203426 7.877,2.563 L 7.418,3.021 C 7.104,3.335 6.802,3.662 6.514,4 H 3.31 C 2.702403,4.000176 2.1383808,4.3154985 1.82,4.833 L 0.11,7.607 C -0.14713947,8.0246695 0.05923229,8.5726902 0.528,8.717 L 3.63,9.671 c 0.037,0.051 0.079,0.1 0.124,0.145 l 2.429,2.428 c 0.046,0.046 0.094,0.088 0.145,0.125 l 0.954,3.102 c 0.1443098,0.468768 0.6923305,0.675139 1.11,0.418 l 2.774,-1.707 c 0.517502,-0.318381 0.832824,-0.882403 0.833,-1.49 V 9.485 c 0.338,-0.288 0.665,-0.59 0.979,-0.904 L 13.436,8.122 C 15.077087,6.4815408 15.999372,4.2564039 16,1.936 V 1.75 C 16,0.78350169 15.216498,0 14.25,0 Z M 10.5,12.691 c 2.4e-5,0.08685 -0.04503,0.16749 -0.119,0.213 l -1.949,1.2 -0.548,-1.783 2.35,-1.521 c 0.089,-0.057 0.178,-0.115 0.266,-0.175 z M 1.896,7.569 3.096,5.619 C 3.1415096,5.5450279 3.2221496,5.4999755 3.309,5.5 H 5.376 C 5.317,5.588 5.258,5.676 5.2,5.766 L 3.678,8.116 Z M 8.938,3.623 C 10.297343,2.2639091 12.140777,1.500278 14.063,1.5 h 0.186 c 0.138071,0 0.25,0.1119288 0.25,0.25 v 0.186 c 2.52e-4,1.9229161 -0.763419,3.7671668 -2.123,5.127 l -0.459,0.458 c -0.759338,0.7596825 -1.597012,1.4367935 -2.499,2.02 l -2.317,1.5 -2.143,-2.143 1.5,-2.317 C 7.0413916,5.6788391 7.7184845,4.8408528 8.478,4.081 L 8.936,3.623 Z M 10,5 c 0,1.3333328 2,1.3333328 2,0 0,-1.3333328 -2,-1.3333328 -2,0 z M 3.56,14.56 C 5.0757823,13.147579 2.8524207,10.924218 1.44,12.44 0.706,13.17 0.393,14.772 0.29,15.443 0.26373918,15.598947 0.39905314,15.734261 0.555,15.708 1.226,15.605 2.828,15.292 3.56,14.56 Z"
     id="path25987"
     sodipodi:nodetypes="ccccccccccccccccccccsscccccccccccccccccssccccccccccsssccccc" />
</svg>

<svg xmlns="http://www.w3.org/2000/svg" width="16" height="16" viewBox="0 0 16 16"><path fill-rule="evenodd" d="M14.064 0a8.75 8.75 0 00-6.187 2.563l-.459.458c-.314.314-.616.641-.904.979H3.31a1.75 1.75 0 00-1.49.833L.11 7.607a.75.75 0 00.418 1.11l3.102.954c.037.051.079.1.124.145l2.429 2.428c.046.046.094.088.145.125l.954 3.102a.75.75 0 001.11.418l2.774-1.707a1.75 1.75 0 00.833-1.49V9.485c.338-.288.665-.59.979-.904l.458-.459A8.75 8.75 0 0016 1.936V1.75A1.75 1.75 0 0014.25 0h-.186zM10.5 10.625c-.088.06-.177.118-.266.175l-2.35 1.521.548 1.783 1.949-1.2a.25.25 0 00.119-.213v-2.066zM3.678 8.116L5.2 5.766c.058-.09.117-.178.176-.266H3.309a.25.25 0 00-.213.119l-1.2 1.95 1.782.547zm5.26-4.493A7.25 7.25 0 0114.063 1.5h.186a.25.25 0 01.25.25v.186a7.25 7.25 0 01-2.123 5.127l-.459.458a15.21 15.21 0 01-2.499 2.02l-2.317 1.5-2.143-2.143 1.5-2.317a15.25 15.25 0 012.02-2.5l.458-.458h.002zM12 5a1 1 0 11-2 0 1 1 0 012 0zm-8.44 9.56a1.5 1.5 0 10-2.12-2.12c-.734.73-1.047 2.332-1.15 3.003a.23.23 0 00.265.265c.671-.103 2.273-.416 3.005-1.148z"/></svg>
